tools/download-figma-icons/icons/solid/trash.svg

<svg width="24" height="24" viewBox="0 0 24 24" fill="none" xmlns="http://www.w3.org/2000/svg">
<path fill-rule="evenodd" clip-rule="evenodd" d="M16.4998 18.375C16.4998 18.7875 16.1705 19.125 15.7498 19.125C15.3373 19.125 14.9998 18.7875 14.9998 18.375V9.375C14.9998 8.9625 15.3373 8.625 15.7498 8.625C16.1705 8.625 16.4998 8.9625 16.4998 9.375V18.375ZM12.7498 18.375C12.7498 18.7875 12.4205 19.125 11.9998 19.125C11.5873 19.125 11.2498 18.7875 11.2498 18.375V9.375C11.2498 8.9625 11.5873 8.625 11.9998 8.625C12.4205 8.625 12.7498 8.9625 12.7498 9.375V18.375ZM8.99975 1.68751C8.99975 1.57576 9.04551 1.50001 9.00801 1.50001L14.9398 1.48501C14.9548 1.50001 14.9998 1.57576 14.9998 1.68751V3.75001H8.99975V1.68751ZM8.99975 18.375C8.99975 18.7875 8.67051 19.125 8.24975 19.125C7.83726 19.125 7.49975 18.7875 7.49975 18.375V9.375C7.49975 8.9625 7.83726 8.625 8.24975 8.625C8.67051 8.625 8.99975 8.9625 8.99975 9.375V18.375ZM21.7498 3.75H16.4998V1.6875C16.4998 0.7575 15.8323 0 14.9998 0H8.99976C8.17476 0 7.49976 0.7575 7.49976 1.6875V3.75H2.24976C1.83726 3.75 1.49976 4.0875 1.49976 4.5C1.49976 4.9125 1.83726 5.25 2.24976 5.25H3.74976V21.5475C3.74976 22.8975 4.83726 24 6.17226 24H17.8348C19.1705 24 20.2498 22.8975 20.2498 21.5475V5.25H21.7498C22.1705 5.25 22.4998 4.9125 22.4998 4.5C22.4998 4.0875 22.1705 3.75 21.7498 3.75Z" fill="black"/>
</svg>

<svg width="24" height="24" viewBox="0 0 24 24" fill="none" xmlns="http://www.w3.org/2000/svg"><path fill-rule="evenodd" clip-rule="evenodd" d="M16.5 18.375c0 .413-.33.75-.75.75a.752.752 0 0 1-.75-.75v-9c0-.412.337-.75.75-.75.42 0 .75.338.75.75v9Zm-3.75 0c0 .413-.33.75-.75.75a.752.752 0 0 1-.75-.75v-9c0-.412.337-.75.75-.75.42 0 .75.338.75.75v9ZM9 1.688c0-.112.046-.188.008-.188l5.932-.015a.33.33 0 0 1 .06.203V3.75H9V1.688Zm0 16.687c0 .413-.33.75-.75.75a.752.752 0 0 1-.75-.75v-9c0-.412.337-.75.75-.75.42 0 .75.338.75.75v9ZM21.75 3.75H16.5V1.687C16.5.757 15.832 0 15 0H9c-.825 0-1.5.757-1.5 1.688V3.75H2.25a.752.752 0 0 0-.75.75c0 .412.337.75.75.75h1.5v16.297C3.75 22.898 4.837 24 6.172 24h11.663c1.335 0 2.415-1.102 2.415-2.453V5.25h1.5c.42 0 .75-.338.75-.75s-.33-.75-.75-.75Z" fill="currentColor"/></svg>
